packages/ffe-icons/icons/filled/sm/tune.svg

<svg xmlns="http://www.w3.org/2000/svg" height="20" viewBox="0 -960 960 960" width="20"><path d="M492.197-154.001q-10.966 0-18.581-7.475-7.615-7.474-7.615-18.524v-168q0-11.05 7.418-18.524 7.418-7.475 18.384-7.475 10.966 0 18.581 7.475 7.615 7.474 7.615 18.524v58.001h261.718q11.033 0 18.658 7.418 7.624 7.418 7.624 18.384 0 10.966-7.475 18.581-7.474 7.615-18.524 7.615H517.999V-180q0 11.05-7.418 18.524-7.418 7.475-18.384 7.475Zm-312.197-84q-11.05 0-18.524-7.418-7.475-7.418-7.475-18.384 0-10.966 7.475-18.581 7.474-7.615 18.524-7.615h168q11.05 0 18.524 7.418 7.475 7.418 7.475 18.384 0 10.966-7.475 18.581-7.474 7.615-18.524 7.615H180Zm144.197-132q-10.966 0-18.581-7.475-7.615-7.474-7.615-18.524v-58.001H180.263q-11.013 0-18.637-7.418-7.625-7.418-7.625-18.384 0-10.966 7.475-18.581 7.474-7.615 18.524-7.615h118.001V-564q0-11.05 7.418-18.524 7.418-7.475 18.384-7.475 10.966 0 18.581 7.475 7.615 7.474 7.615 18.524v168q0 11.05-7.418 18.524-7.418 7.475-18.384 7.475Zm143.803-84q-11.05 0-18.524-7.418-7.475-7.418-7.475-18.384 0-10.966 7.475-18.581 7.474-7.615 18.524-7.615h312q11.05 0 18.524 7.418 7.475 7.418 7.475 18.384 0 10.966-7.475 18.581-7.474 7.615-18.524 7.615H468Zm144.197-132q-10.966 0-18.581-7.475-7.615-7.474-7.615-18.524v-168q0-11.05 7.418-18.524 7.418-7.475 18.384-7.475 10.966 0 18.581 7.475 7.615 7.474 7.615 18.524v58.001H780q11.05 0 18.524 7.418 7.475 7.418 7.475 18.384 0 10.966-7.475 18.581-7.474 7.615-18.524 7.615H637.999V-612q0 11.05-7.418 18.524-7.418 7.475-18.384 7.475Zm-432.197-84q-11.05 0-18.524-7.418-7.475-7.418-7.475-18.384 0-10.966 7.475-18.581 7.474-7.615 18.524-7.615h312q11.05 0 18.524 7.418 7.475 7.418 7.475 18.384 0 10.966-7.475 18.581-7.474 7.615-18.524 7.615H180Z"/></svg>

<svg xmlns="http://www.w3.org/2000/svg" height="20" viewBox="0 -960 960 960" width="20"><path d="M492.2-154q-10.97 0-18.58-7.48Q466-168.95 466-180v-168q0-11.05 7.42-18.52 7.42-7.48 18.38-7.48 10.97 0 18.58 7.48Q518-359.05 518-348v58h261.72q11.03 0 18.65 7.42 7.63 7.42 7.63 18.38 0 10.97-7.48 18.58Q791.05-238 780-238H518v58q0 11.05-7.42 18.52-7.42 7.48-18.38 7.48ZM180-238q-11.05 0-18.52-7.42-7.48-7.42-7.48-18.38 0-10.97 7.48-18.58Q168.95-290 180-290h168q11.05 0 18.52 7.42 7.48 7.42 7.48 18.38 0 10.97-7.48 18.58Q359.05-238 348-238H180Zm144.2-132q-10.97 0-18.58-7.48Q298-384.95 298-396v-58H180.26q-11.01 0-18.63-7.42-7.63-7.42-7.63-18.38 0-10.97 7.48-18.58Q168.95-506 180-506h118v-58q0-11.05 7.42-18.52 7.42-7.48 18.38-7.48 10.97 0 18.58 7.48Q350-575.05 350-564v168q0 11.05-7.42 18.52-7.42 7.48-18.38 7.48ZM468-454q-11.05 0-18.52-7.42-7.48-7.42-7.48-18.38 0-10.97 7.48-18.58Q456.95-506 468-506h312q11.05 0 18.52 7.42 7.48 7.42 7.48 18.38 0 10.97-7.48 18.58Q791.05-454 780-454H468Zm144.2-132q-10.97 0-18.58-7.48Q586-600.95 586-612v-168q0-11.05 7.42-18.52 7.42-7.48 18.38-7.48 10.97 0 18.58 7.48Q638-791.05 638-780v58h142q11.05 0 18.52 7.42 7.48 7.42 7.48 18.38 0 10.97-7.48 18.58Q791.05-670 780-670H638v58q0 11.05-7.42 18.52-7.42 7.48-18.38 7.48ZM180-670q-11.05 0-18.52-7.42-7.48-7.42-7.48-18.38 0-10.97 7.48-18.58Q168.95-722 180-722h312q11.05 0 18.52 7.42 7.48 7.42 7.48 18.38 0 10.97-7.48 18.58Q503.05-670 492-670H180Z"/></svg>
